!!!!SEGMENT: pl-cz--i-155--006-002_anonim--partia-es-adagio.krn
!!!cenid: 18xx:2513
!!!COM: Anonim
!!!COM-rismid: pe30004985
!!!CDT:
!!!CNT:
!!!OPR: Partia Es
!!!OTL: Adagio
!!!OMV: 002
!!!PDT:
!!!AGN: Secular; Partita
!!!SMS-siglum: PL-CZ
!!!SMS-shelfmark: I-155
!!!SMS-shelfwork: 006-002 M
!!!SMS-variant:
!!!SMS-altvar:
!!!NIFC-rismid: 1001012514
!!!URL-scan: http://repozytorium.nifc.pl/skany/pl-cz-nut--i-155
!!!ONB-nifc: UWAGA: Parthia 6 (006), części: 1. bez tempa, 2. Adagio, 3. Menuetto, 4. Allegro presto. Uwaga: 5 partii
!!!AIN: 1 clars 2 cor 1 empty 1 fagot
!!!key:
**kern	**kern	**dynam	**kern	**kern	**kern	**dynam
*part5	*part4	*part4	*part3	*part2	*part1	*part1
*staff5	*staff4	*	*staff3	*staff2	*staff1	*
*Icor	*Icor	*	*Ifagot	*Iclars	*Iempty	*
*I"Corno Secondo	*I"Corno Primo.	*	*I"Fagotto	*I"Clarinetto Secondo	*I"Clainetto Primo	*
*I'cor 2	*I'cor 1	*	*I'fg	*I'cl 2	*I'cl 1	*
*clefG2	*clefG2	*	*clefF4	*clefG2	*clefG2	*
*ITrd5c9	*ITrd5c9	*	*	*ITrd1c2	*ITrd1c2	*
*k[b-e-a-]	*k[b-e-a-]	*	*k[b-e-a-]	*k[b-e-a-]	*k[b-e-a-]	*
*E-:	*E-:	*	*E-:	*E-:	*E-:	*
*M3/8	*M3/8	*	*M3/8	*M3/8	*M3/8	*
*>[A,A,B,B,]	*>[A,A,B,B,]	*	*>[A,A,B,B,]	*>[A,A,B,B,]	*>[A,A,B,B,]	*
=1	=1	=1	=1	=1	=1	=1
*>A	*>A	*	*>A	*>A	*>A	*
*all\right	*all\right	*	*all\right	*all\right	*all\right	*
!LO:N:vis=0	!	!	!LO:TX:t=P:problem=kolejność znaków BB- E- A-	!	!	!
!LO:TX:a:i:B:t=Adagio	!LO:TX:a:i:B:t=Adagio	!LO:DY:rj	!LO:TX:a:i:B:t=Adagio	!LO:TX:a:i:B:t=Adagio	!LO:TX:a:i:B:t=Adagio	!
2.r	8e-\L	p	4.r	4.r	4.r	.
.	8e-\	.	.	.	.	.
.	8e-\J	.	.	.	.	.
=2	=2	=2	=2	=2	=2	=2
*	*tremolo	*	*	*tremolo	*	*
!	!	!	!	!	!LO:TX:t=P:problem=all\right&colon; global	!LO:DY:rj
.	8e-\L	.	4.r	8c/L	8a-\L	p
.	8e-\	.	.	8c/	8a-\	.
.	8e-\J	.	.	8c/J	8a-\J	.
*	*Xtremolo	*	*	*	*	*
=3	=3	=3	=3	=3	=3	=3
4.B-/	4.f\	.	4.BB-/	8d/L	8a-\L	<
.	.	.	.	8d/	8a-\J	.
.	.	.	.	.	16qqb-/	.
.	.	.	.	8d/J	16a-\LL	.
.	.	.	.	.	32g\L	.
.	.	.	.	.	32a-\JJJ	.
*	*	*	*	*Xtremolo	*	*
=4	=4	=4	=4	=4	=4	=4
*	*	*	*tremolo	*	*	*
4E-/	4e-\	.	8E-\L	16e-/LL	16g\LL	.
.	.	.	.	16g/	16b-\	.
.	.	.	8E-\	16g/	16b-\	.
.	.	.	.	16b-/JJ	16ee-\JJ	.
!	!	!	!	!	!LO:TX:a:t=P:problem=klamra łukowa, łuczek zamiast numeru	!
8r	8r	.	8E-\J	8g/	48ee-\LLL	.
.	.	.	.	.	48gg\	.
.	.	.	.	.	48ff\JJJ	.
!	!	!	!	!	!LO:TX:a:t=P:problem=klamra łukowa, łuczek zamiast numeru	!
.	.	.	.	.	48ee-\LLL	.
.	.	.	.	.	48dd\	.
.	.	.	.	.	48cc\JJJ	.
=5	=5	=5	=5	=5	=5	=5
*	*	*	*	*tremolo	*	*
4.BB-/	4.f\	.	8BB-/L	8d/L	8a-\L	.
.	.	.	8BB-/	8d/	16a-\L	.
.	.	.	.	.	16a-\JJ	.
.	.	.	.	.	16qqb-/	.
.	.	.	8BB-/J	8d/J	16a-\LL	.
.	.	.	.	.	32g\L	.
.	.	.	.	.	32a-\JJJ	.
*	*	*	*	*Xtremolo	*	*
=6	=6	=6	=6	=6	=6	=6
4.E-/	4.b-\	.	8E-\L	16e-\LL	16g\LL	.
.	.	.	.	(16g\	16b-\	.
.	.	.	8E-\	16g\	16b-\	.
.	.	.	.	16b-\)	16ee-\	.
.	.	.	8E-\J	16b-\	16ee-\	.
.	.	.	.	16ee-\JJ	16gg\JJ	.
*	*	*	*Xtremolo	*	*	*
=7	=7	=7	=7	=7	=7	=7
!	!	!	!LO:TX:t=P:problem=mixed beam	!	!	!
4.BB-/	4.b-\	.	8B-\L	16ff\LL	(16aa-\LL	.
.	.	.	.	(16dd\	16ff\	.
.	.	.	8BB-/	16dd\	16ff\	.
.	.	.	.	16b-\	16dd\JJ)	.
!	!	!	!	!	!LO:LB:g=original	!
.	.	.	8BB-/J	16b-\)	(32dd\LLL	.
.	.	.	.	.	32cc\	.
.	.	.	.	16f\JJ	32b-\	.
.	.	.	.	.	32a-\JJJ)	.
=8	=8	=8	=8	=8	=8	=8
.	.	.	.	16qqf/	16qqa-/	.
8E-/	8g\	.	16r	16e-/LL	16g/LL	.
.	.	.	16E-\LL	32A-/L	32f/L	.
.	.	.	.	32G/JJJ	32e-/JJJ	.
16r	16r	.	16G\	8G/	8e-/	.
16E-/LL	16e-\LL	.	16B-\	.	.	.
16E-/	16e-\	.	16G\	8r	8r	.
16E-/JJ	16e-\JJ	.	16E-\JJ	.	.	.
!	!	!	!	!LO:LB:g=original	!	!
=9	=9	=9	=9	=9	=9	=9
*	*	*	*tremolo	*	*	*
8E-/	8e-\	.	8E-\L	16.a-\LL	16.cc\LL	.
!	!	!	!	!	!LO:SIC:v:s=32dd-JJk	!
.	.	.	.	32b-\JJk	32dd\JJk	.
8r	8r	.	8E-\	16a-\LL	16cc\LL	.
.	.	.	.	16cc\JJ	16ee-\JJ	.
.	.	.	.	16qqdd/	.	.
8r	8r	.	8E-\J	16cc\LL	32aa-\LLL	.
.	.	.	.	.	32ee-\	.
.	.	.	.	32b-\L	32dd-X\	.
.	.	.	.	32a-\JJJ	32cc\JJJ	.
=10	=10	=10	=10	=10	=10	=10
16.g\LL	16.b-\LL	.	8E-\L	8g/	8b-\	.
32f\JJk	32a-\JJk	.	.	.	.	.
16e-\LL	16g\LL	.	8E-\	8r	8r	.
16e-\	16g\	.	.	.	.	.
16f\	16a-\	.	8E-\J	8r	8r	.
16g\JJ	16b-\JJ	.	.	.	.	.
!LO:LB:g=original	!LO:LB:g=original	!	!	!	!	!
=11	=11	=11	=11	=11	=11	=11
8e-\	8ee-\	.	8E-\L	16.a-\LL	16.cc\LL	.
.	.	.	.	32b-\JJk	32dd-X\K	.
8r	8r	.	8E-\	16a-\LL	16cc\	.
.	.	.	.	16cc\JJ	16ee-\JJ	.
.	.	.	.	16qqdd/	.	.
8r	8r	.	8E-\J	(16cc\LL	(32aa-\LLL	.
.	.	.	.	.	32ee-\	.
.	.	.	.	32b-\L	32dd-\	.
.	.	.	.	32a-\JJJ)	32cc\JJJ)	.
=12	=12	=12	=12	=12	=12	=12
16.g\LL	16.b-\LL	.	8E-\L	8g/	8b-\	.
32f\JJk	32a-\JJk	.	.	.	.	.
16e-\LL	16g\LL	.	8E-\	8r	8r	.
16e-\	16g\	.	.	.	.	.
16f\	16a-\	.	8E-\J	8r	8r	.
16g\JJ	16b-\JJ	.	.	.	.	.
*	*	*	*Xtremolo	*	*	*
!	!	!	!LO:LB:g=original	!	!	!
=13	=13	=13	=13	=13	=13	=13
4.B-/	4.b-\	.	16BB-/	16f/LL	16a-/LL	.
.	.	.	16r	16d/JJ	16f/JJ	.
.	.	.	16D/	16r	16r	.
!	!	!	!	!	!LO:LB:g=original	!
.	.	.	16r	16d/	16f/	.
.	.	.	16BB-/	16r	16r	.
.	.	.	16r	16f/	16a-/	.
=14	=14	=14	=14	=14	=14	=14
8E-/	8g\	.	8E-\L	16.e-/LL	16.g\LL	.
.	.	.	.	32f/JJk	32a-\JJk	.
8r	8r	.	8r	16g/LL	16b-\LL	.
.	.	.	.	16g/JJ	32ee-\L	.
.	.	.	.	.	32b-\JJJ	.
8r	8r	.	8E-\J	16g/LL	16b-\LL	.
.	.	.	.	32f/L	32a-\L	.
.	.	.	.	32e-/JJJ	32g\JJJ	.
!	!	!	!	!LO:LB:g=original	!	!
=15	=15	=15	=15	=15	=15	=15
!	!	!	!LO:TX:t=P:problem=mixed beam	!	!	!
4.B-/	4.b-\	.	8B-\L	8d/L	8f/L	.
.	.	.	8BB-/	8d/	8f/	.
.	.	.	8E-/J	8e-/J	8g/J	.
=16	=16	=16	=16	=16	=16	=16
!	!	!	!LO:TX:t=P:problem=mixed beam	!	!	!
4BB-/	4b-\	.	8B-\L	8e-/L	8g/L	.
.	.	.	8BB-/J	8d/J	8f/J	.
8r	8r	.	8r	8r	8r	.
=17	=17	=17	=17	=17	=17	=17
*	*	*	*	*	*tremolo	*
!LO:N:vis=00	!LO:N:vis=00	!	!	!	!	!
1.r	1.r	.	4.r	4.r	8b-\L	.
.	.	.	.	.	8b-\	.
.	.	.	.	.	8b-\J	.
*	*	*	*	*	*Xtremolo	*
=18	=18	=18	=18	=18	=18	=18
!	!	!	!	!LO:N:vis=8	!	!
.	.	.	16r	16r	16b-\LL	.
.	.	.	16C/LL	16f/	16a\J	.
*	*	*	*	*tremolo	*	*
!	!	!	!	!LO:TX:b:t=....	!	!
.	.	.	16C/	16f/LL	8a\J	.
.	.	.	16C/	16f/	.	.
.	.	.	16C/	16f/	8r	.
.	.	.	16C/JJ	16f/JJ	.	.
=19	=19	=19	=19	=19	=19	=19
*	*	*	*tremolo	*	*	*
.	.	.	16AAn/LL	16f/LL	8ee-\L	.
.	.	.	16AA/	16f/	.	.
.	.	.	16AA/	16f/	8ee-\J	.
.	.	.	16AA/	16f/	.	.
.	.	.	16AA/	16f/	(32ff\LLL	.
.	.	.	.	.	32ee-\	.
.	.	.	16AA/JJ	16f/JJ	32dd\	.
.	.	.	.	.	32ee-\JJJ)	.
*	*	*	*Xtremolo	*Xtremolo	*	*
=20	=20	=20	=20	=20	=20	=20
.	.	.	.	16qqg/	16qqee-/	.
.	.	.	8BB-/	16f/LL	16dd\LL	.
.	.	.	.	32e-/L	32cc\L	.
.	.	.	.	32d/JJJ	32b-\JJJ	.
.	.	.	8r	8d/	8b-\	.
*	*	*	*Xtuplet	*	*	*
.	.	.	24BB-/LL	16r	16r	.
.	.	.	24D/	.	.	.
.	.	.	.	16dd\	16ff\	.
.	.	.	24BB-/JJ	.	.	.
!	!	!	!LO:LB:g=original	!	!LO:LB:g=original	!
=21	=21	=21	=21	=21	=21	=21
!	!	!	!LO:TX:t=P:problem=mixed beam	!	!	!
*	*	*	*	*tremolo	*	*
4.E-/	4.b-\	.	8E-\L	8ee-\L	8gg\	.
!	!	!	!	!	!LO:N:vis=16	!
.	.	.	8EE-/	8ee-\	32r	.
.	.	.	.	.	32bb-\LLL	.
.	.	.	.	.	32aa\	.
.	.	.	.	.	32bb-\JJJ	.
.	.	.	8E-\J	8ee-\J	32ccc\LLL	.
.	.	.	.	.	32bb-\	.
.	.	.	.	.	32aa\	.
.	.	.	.	.	32gg\JJJ	.
*	*	*	*	*Xtremolo	*	*
=22	=22	=22	=22	=22	=22	=22
4.BB-/	4b-\	.	8B-\	16.dd\LL	16.ff\LL	.
.	.	.	.	32ff\JJk	32bb-\JK	.
!	!	!	!	!	!LO:N:vis=16	!
.	.	.	8r	8dd\	8ff\J	.
.	8r	.	24B-\LL	8r	8r	.
.	.	.	24F\	.	.	.
.	.	.	24D\JJ	.	.	.
=23	=23	=23	=23	=23	=23	=23
!	!	!	!LO:TX:t=P:problem=mixed beam	!	!	!
8B-/	8b-\	.	8BB-/L	32dd\LLL	32ff\LLL	.
.	.	.	.	32b-\	32dd\	.
.	.	.	.	32dd\	32bb-\	.
!	!	!	!	!LO:SIC:v:s=32ee-JJJ	!	!
.	.	.	.	32ff\JJJ	32gg\JJJ	.
!	!	!	!	!LO:LB:g=original	!	!
8r	8r	.	8F\	16dd\LL	16ff\LL	.
.	.	.	.	16cc\	16ee-\	.
8f\	8f\	.	8FF/J	16b-\	16dd\	.
.	.	.	.	16f\JJ	16cc\JJ	.
!LO:LB:g=original	!LO:LB:g=original	!	!	!	!	!
=24	=24	=24	=24	=24	=24	=24
*	*	*	*tremolo	*	*	*
.	.	.	.	.	16qqcc/	.
8B-/	8f\	.	8BB-/L	8d/	8b-\	.
8r	8r	.	8BB-/	8r	16r	.
.	.	.	.	.	16b-\LL	.
8r	8r	.	8BB-/J	16b-\LL	16dd\	.
.	.	.	.	16cc\JJ	16ff\JJ	.
=25	=25	=25	=25	=25	=25	=25
!	!	!	!	!	!LO:N:vis=16.	!
8B-/	8b-\	.	8BB-/L	8dd\	32.ff\LLL	.
!	!	!	!	!	!LO:N:vis=32	!
.	.	.	.	.	64bb-\JK	.
.	.	.	.	.	16ff\JJ	.
8r	8r	.	8BB-/	8r	16r	.
.	.	.	.	.	16ee-\LL	.
*	*	*	*	*Xtuplet	*	*
8r	8r	.	8BB-/J	24g/LL	16dd\	.
.	.	.	.	24f/	.	.
.	.	.	.	.	16cc\JJ	.
.	.	.	.	24e-/JJ	.	.
!	!	!	!	!	!LO:LB:g=original	!
=26	=26	=26	=26	=26	=26	=26
4.r	4.r	.	8BB-/L	16e-/LL	16cc\LL	.
.	.	.	.	16d/JJ	16b-\JJ	.
.	.	.	8BB-/	8r	16r	.
.	.	.	.	.	16b-\LL	.
.	.	.	8BB-/J	(16b-\LL	16dd\	.
.	.	.	.	16cc\JJ)	16ee-\JJ	.
=27	=27	=27	=27	=27	=27	=27
8B-/	8b-\	.	8BB-/L	8dd\	32.ff\LLL	.
.	.	.	.	.	64bb-\JK	.
.	.	.	.	.	16ff\JJ	.
8r	8r	.	8BB-/	8r	16r	.
.	.	.	.	.	16ee-\LL	.
8r	8r	.	8BB-/J	24g/LL	16dd\	.
.	.	.	.	24f/	.	.
.	.	.	.	.	16cc\JJ	.
.	.	.	.	24e-/JJ	.	.
*	*	*	*Xtremolo	*	*	*
=28	=28	=28	=28	=28	=28	=28
!	!LO:N:vis=8	!	!	!	!	!
4B-/	4b-\	.	8BB-/L	4e-/	4cc\	.
.	.	.	8FF/	.	.	.
!	!	!	!LO:TX:b:t=28	!	!	!
16B-/	16b-\	.	8BB-/J	16d/	16b-\	.
!LO:TX:b:t=28	!LO:TX:b:t=28	!	!	!LO:TX:b:t=28	!LO:TX:b:t=28	!
16r	16r	.	.	16r	16r	.
=29:|!|:	=29:|!|:	=29:|!|:	=29:|!|:	=29:|!|:	=29:|!|:	=29:|!|:
*>B	*>B	*	*>B	*>B	*>B	*
*	*	*	*tremolo	*tremolo	*	*
!	!	!	!	!	!	!LO:DY:rj
4B-/	4b-\	.	16BB-/LL	16d/LL	8.b-\L	f
.	.	.	16BB-/	16d/	.	.
.	.	.	16BB-/	16d/	.	.
.	.	.	16BB-/	16d/	(32gg\LL	.
.	.	.	.	.	32ff\JJJ	.
8r	8r	.	16BB-/	16d/	32ee-\LLL	.
.	.	.	.	.	32dd\	.
.	.	.	16BB-/JJ	16d/JJ	32cc\	.
.	.	.	.	.	32b-\JJJ)	.
*	*	*	*Xtremolo	*Xtremolo	*	*
!	!	!	!	!LO:LB:g=original	!	!
=30	=30	=30	=30	=30	=30	=30
8r	8r	.	16C/LL	16e-/LL	16b-\LL	.
.	.	.	16C/	16e-/	16a\JJ	.
8r	8r	.	16D/	16f/	8a-\	.
.	.	.	16D/	16f/	.	.
.	.	.	.	.	16qqb-/	.
8B-/	8b-\	.	16D/	16f/	16a-\LL	.
.	.	.	16D/JJ	16f/JJ	32g\L	.
.	.	.	.	.	32a-\JJJ	.
!	!	!	!LO:LB:g=original	!	!LO:LB:g=original	!
=31	=31	=31	=31	=31	=31	=31
4E-/	4g\	.	8E-\L	16e-/LL	(32g\LLL	.
.	.	.	.	.	32ee-\	.
.	.	.	.	16g/	32dd\	.
.	.	.	.	.	32ee-\JJJ)	.
.	.	.	8E-\	16g/	(32gg\LLL	.
.	.	.	.	.	32ff\	.
.	.	.	.	16g/JJ	32ee-\	.
.	.	.	.	.	32dd\JJJ)	.
8r	8r	.	16G\L	16e-/LL	(32ee-\LLL	.
.	.	.	.	.	32b-\	.
.	.	.	16E-\JJ	32f/L	32a-\	.
.	.	.	.	32e-/JJJ	32g\JJJ)	.
=32	=32	=32	=32	=32	=32	=32
!	!	!	!LO:TX:t=P:problem=mixed beam	!	!	!
4BB-/	4b-\	.	8B-\L	8e-/L	8g/L	.
.	.	.	8BB-/J	8d/J	8f/J	.
8r	8r	.	8r	8r	8r	.
=33	=33	=33	=33	=33	=33	=33
*	*	*	*tremolo	*tremolo	*	*
!LO:N:vis=00	!LO:N:vis=00	!	!	!	!	!LO:DY:rj
1.r	1.r	.	16BBn/LL	16d/LL	8.g\L	p
.	.	.	16BB/	16d/	.	.
.	.	.	16BB/	16d/	.	.
.	.	.	16BB/	16d/	16dd\Jk	.
.	.	.	16BB/	16d/	16g/LL	.
.	.	.	16BB/JJ	16d/JJ	16f/JJ	.
=34	=34	=34	=34	=34	=34	=34
.	.	.	16C/LL	16e-/LL	32f/LLL	.
.	.	.	.	.	32e-/J	.
!	!	!	!	!	!LO:N:vis=8	!
.	.	.	16C/	16e-/	16e-/JJ	.
.	.	.	16C/	16e-/	16r	.
.	.	.	16C/	16e-/	16cc\	.
.	.	.	16C/	16e-/	(32cc\LLL	.
.	.	.	.	.	32dd\	.
.	.	.	16C/JJ	16e-/JJ	32ee-\	.
.	.	.	.	.	32cc\JJJ)	.
*	*	*	*Xtremolo	*Xtremolo	*	*
=35	=35	=35	=35	=35	=35	=35
.	.	.	16D/LL	16f/LL	32cc\LLL	.
.	.	.	.	.	32bX\J	.
.	.	.	16D/	16f/	16b\JJ	.
.	.	.	16D/	16f/	16r	.
.	.	.	16D/	16f/	16aa-\	.
!	!	!	!	!	!LO:LB:g=original	!
.	.	.	16BBn/	16d/	(32gg\LLL	.
.	.	.	.	.	32ff\	.
.	.	.	16BB/JJ	16d/JJ	32ee-\	.
.	.	.	.	.	32dd\JJJ)	.
=36	=36	=36	=36	=36	=36	=36
*	*	*	*tremolo	*tremolo	*	*
.	.	.	.	.	8qqff/	.
.	.	.	16C/LL	16e-/LL	16ee-\LL	.
.	.	.	16C/	16e-/	32dd\L	.
.	.	.	.	.	32cc\JJJ	.
.	.	.	16C/	16e-/	8cc\	.
.	.	.	16C/	16e-/	.	.
.	.	.	16C/	16e-/	16r	.
.	.	.	16C/JJ	16e-/JJ	16cc\	.
!	!LO:LB:g=original	!	!	!	!	!
=37	=37	=37	=37	=37	=37	=37
!LO:N:vis=0	!	!	!	!	!	!
2.r	4.g\	.	16BBn/LL	16e-/LL	8.dd-X\L	p
.	.	.	16BB/	16e-/	.	.
.	.	.	16BB/	16e-/	.	.
.	.	.	16BB/	16e-/	16gg\L	.
.	.	.	16BB/	16e-/	16bb-\	.
.	.	.	16BB/JJ	16e-/JJ	16dd-X\JJ	.
*	*	*	*	*Xtremolo	*	*
=38	=38	=38	=38	=38	=38	=38
.	4.e-\	.	8AA-/L	(32cc\LLL	(32ee-\LLL	.
.	.	.	.	32b-\	32dd-X\	.
.	.	.	.	32a-\	32cc\	.
.	.	.	.	32b-\JJJ)	32dd-\JJJ)	.
.	.	.	8AA-/	16a-\LL	16cc\LL	.
.	.	.	.	16cc\JJ	16ee-\JJ	.
.	.	.	8AA-/J	16cc\LL	(32aa-\LLL	.
.	.	.	.	.	32ee-\	.
.	.	.	.	32b-\L	32dd-X\	.
.	.	.	.	32a-\JJJ	32cc\JJJ)	.
*	*	*	*Xtremolo	*	*	*
=39	=39	=39	=39	=39	=39	=39
4.r	8e-\	.	8E-\L	(16a-/LL	(16cc\LL	.
!	!	!	!	!	!	!LO:HP:a:t=cres
.	.	.	.	16g/)	16b-\)	<
.	8r	.	8E-\	16g'/	16b-'\	.
.	.	.	.	16g'/	16b-'\JJ	.
.	8g\	.	8En\J	16g'/	16b-\LL	.
.	.	.	.	16g'/JJ	(32cc\L	.
.	.	.	.	.	32b-\JJJ)	.
!LO:LB:g=original	!	!	!	!LO:LB:g=original	!LO:LB:g=original	!
=40	=40	=40	=40	=40	=40	=40
8r	8f\	.	8F\L	(16g/LL	(16b-\LL	.
.	.	.	.	16f/)	16a-\)	.
8r	8r	.	8F\	16f'/	16a-'\	.
.	.	.	.	16f'/	16a-'\JJ	.
8BB-/	8f\	.	8D\J	16f'/	(32b-\LLL	.
.	.	.	.	.	32a-\	.
.	.	.	.	16f'/JJ	32g\	.
.	.	.	.	.	32a-\JJJ)	.
!	!	!	!LO:LB:g=original	!	!	!
=41	=41	=41	=41	=41	=41	=41
8E-/	8e-\	.	8E-\	16e-/LL	16g\LL	.
.	.	.	.	16g/	16b-\	.
8r	8r	.	8r	16g/	16ee-\	.
.	.	.	.	16g/JJ	16b-\JJ	.
!	!	!	!	!	!	!LO:DY:rj:t=fo&colon;
8E-/	8b-\	.	16E-\LL	(32g/LLL	(32b-\LLL	f
.	.	.	.	32f/	32a-\	.
.	.	.	16G\JJ	32e-/	32a-\	.
.	.	.	.	32d/JJJ)	32g\JJJ)	.
=42	=42	=42	=42	=42	=42	=42
!	!	!	!LO:TX:t=P:problem=mixed beam	!	!	!
4BB-/	4b-\	.	8B-\L	8e-/L	8g/L	.
.	.	.	8BB-/J	8d/J	8f/J	.
8r	8r	.	8r	8r	8r	.
=43	=43	=43	=43	=43	=43	=43
*	*tremolo	*	*	*	*	*
!LO:N:vis=0	!	!	!	!	!	!
2.r	8e-\L	.	4.r	4.r	4.r	.
.	8e-\	.	.	.	.	.
.	8e-\J	.	.	.	.	.
=44	=44	=44	=44	=44	=44	=44
*	*	*	*	*tremolo	*tremolo	*
.	8e-\L	.	4.r	8c/L	8a-\L	.
.	8e-\	.	.	8c/	8a-\	.
.	8e-\J	.	.	8c/J	8a-\J	.
*	*Xtremolo	*	*	*	*Xtremolo	*
=45	=45	=45	=45	=45	=45	=45
*	*	*	*tremolo	*	*	*
4.B-/	4.f\	.	8BB-/L	8d/L	8a-\L	.
.	.	.	8BB-/	8d/	8a-\J	.
.	.	.	.	.	16qqb-/	.
.	.	.	8BB-/J	8d/J	16a-\LL	.
.	.	.	.	.	32g\L	.
.	.	.	.	.	32a-\JJJ	.
*	*	*	*	*Xtremolo	*	*
=46	=46	=46	=46	=46	=46	=46
4.E-/	8g\	.	8E-\L	(16e-\LL	16g\LL	.
.	.	.	.	16g\	16b-\	.
.	4b-\	.	8E-\	16g\	16b-\	.
.	.	.	.	16b-\	16ee-\	.
.	.	.	8E-\J	16b-\	16ee-\	.
.	.	.	.	16ee-\JJ)	16gg\JJ	.
*	*	*	*Xtremolo	*	*	*
!	!	!	!	!	!LO:LB:g=original	!
=47	=47	=47	=47	=47	=47	=47
!	!	!	!LO:TX:t=P:problem=mixed beam	!	!	!
4.BB-/	4b-\	.	8B-\L	16ff\LL	16aa-\LL	.
.	.	.	.	(16dd\	16ff\	.
.	.	.	8BB-/	16dd\	16ff\	.
.	.	.	.	16b-\	16dd\JJ	.
.	8g\	.	8BB-/J	16b-\)	(32dd\LLL	.
.	.	.	.	.	32cc\	.
.	.	.	.	16f\JJ	32b-\	.
.	.	.	.	.	32a-\JJJ)	.
!	!LO:LB:g=original	!	!	!	!	!
=48	=48	=48	=48	=48	=48	=48
8E-/	8e-\	.	16E-\	(16e-/LL	16g\LL	.
.	.	.	16r	16g/JJ)	16b-\JJ	.
8r	8r	.	16G\	16r	16r	.
.	.	.	16r	16g/	16ee-\	.
8r	8r	.	16E-\	16r	16r	.
.	.	.	16r	16ee-\	16gg\	.
!	!	!	!	!LO:LB:g=original	!	!
=49	=49	=49	=49	=49	=49	=49
8B-/	8f\	.	16BB-/	16ff\LL	(16aa-\LL	.
.	.	.	16r	16dd\JJ	16ff\JJ)	.
8r	8r	.	16F\	16r	16r	.
.	.	.	16r	16a-\	16dd\	.
8r	8r	.	16D\	16r	16r	.
.	.	.	16r	16f/	16a-\	.
!	!	!	!LO:LB:g=original	!	!	!
=50	=50	=50	=50	=50	=50	=50
16e-\LL	16g\LL	.	8E-\	8e-/	8g/	.
16g\JJ	16b-\JJ	.	.	.	.	.
16g\LL	16b-\LL	.	8r	8r	8r	.
(32a-\L	32cc\L	.	.	.	.	.
32g\JJJ	32b-\JJJ	.	.	.	.	.
32g\LLL	32b-\LLL	.	8BB-/	8r	8r	.
32f\	32a-\	.	.	.	.	.
32e-\	32g\	.	.	.	.	.
32B-\JJJ)	32f\JJJ	.	.	.	.	.
!LO:LB:g=original	!	!	!	!	!	!
=51	=51	=51	=51	=51	=51	=51
8E-/	8g\	.	8E-\	16r	16r	.
.	.	.	.	16b-\	16gg\	.
8r	8r	.	8r	16b-\LL	16gg\LL	.
.	.	.	.	(32cc\L	32aa-\L	.
.	.	.	.	32b-\JJJ	32gg\JJJ	.
8r	8r	.	16BB-/	32b-\LLL	(32gg\LLL	.
.	.	.	.	32a-\	32ff\	.
.	.	.	16r	32g\	32ee-\	.
.	.	.	.	32f\JJJ)	32dd\JJJ)	.
!	!	!	!	!	!LO:LB:g=original	!
=52	=52	=52	=52	=52	=52	=52
16r	16r	.	8E-\	8g/	8ee-\	.
16g\	16b-\	.	.	.	.	.
16g\LL	16b-\LL	.	8r	8r	8r	.
32a-\L	(32cc\L	.	.	.	.	.
32g\JJJ	32b-\JJJ	.	.	.	.	.
32g\LLL	32b-\LLL	.	8BB-/	8r	8r	.
32f\	32a-\	.	.	.	.	.
32e-\	32g\	.	.	.	.	.
32B-\JJJ	32f\JJJ)	.	.	.	.	.
=53	=53	=53	=53	=53	=53	=53
8E-/	8e-\	.	8E-\L	8g/	16ee-\LL	.
.	.	.	.	.	16b-\JJ	.
.	.	.	.	16qqb-/	16qqdd/	.
8r	8r	.	8G\	16a-/LL	16cc\LL	.
.	.	.	.	32g/L	32b-\L	.
.	.	.	.	32f/JJJ	32a-\JJJ	.
!	!	!	!	!LO:N:vis=8	!	!
16r	8f\	.	8B-\J	16e-/LL	16g/LL	.
!	!	!	!	!LO:N:vis=8	!	!
16B-/	.	.	.	16B-/JJ	16f/JJ	.
!	!LO:LB:g=original	!	!	!	!	!
=54	=54	=54	=54	=54	=54	=54
.	.	.	.	.	16qqf/	.
8G/L	8e-\	.	8E-\	8G/	8e-/	.
8E-/	8r	.	16r	8r	8r	.
.	.	.	16E-\LL	.	.	.
8E-/J	8r	.	16G\	16E-/LL	8r	.
.	.	.	16A-\JJ	16F/JJ	.	.
!	!	!	!	!LO:LB:g=original	!	!
=55	=55	=55	=55	=55	=55	=55
8E-/L	8e-\	.	32.B-\LLL	8G/	8r	.
.	.	.	64e-\JK	.	.	.
.	.	.	16B-\JJ	.	.	.
8E-/J	8r	.	8E-\L	16r	16r	.
.	.	.	.	16cc\LL	(16aa-\LL	.
8r	8r	.	8E-\J	16b-\	16gg\	.
.	.	.	.	16a-\JJ	16ff\JJ)	.
=56	=56	=56	=56	=56	=56	=56
8r	8r	.	8E-\L	(16a-\LL	16ff\LL	.
.	.	.	.	16g\JJ)	16ee-\JJ	.
8r	16r	.	8E-\	8r	8r	.
.	16e-\LL	.	.	.	.	.
16e-\LL	16g\	.	8E-\J	8r	8r	.
16f\JJ	16a-\JJ	.	.	.	.	.
!	!	!	!LO:LB:g=original	!	!	!
=57	=57	=57	=57	=57	=57	=57
8g\	32.b-\LLL	.	8E-\L	8r	8r	.
.	64cc\JK	.	.	.	.	.
.	16b-\JJ	.	.	.	.	.
8r	8r	.	8E-\	16r	16r	.
.	.	.	.	16c/LL	(16a-/LL	.
8r	8r	.	8E-\J	16B-/	16g/	.
.	.	.	.	16A-/JJ	16f/JJ)	.
!LO:LB:g=original	!	!	!	!	!	!
=58	=58	=58	=58	=58	=58	=58
4BB-/	4f\	.	8E-/L	4A-/	4f/	.
.	.	.	8BB-/	.	.	.
!	!	!	!LO:TX:b:t=30	!LO:N:vis=8	!	!
16E-/	16e-\	.	8EE-/J	16G/	16e-/	.
!LO:TX:b:t=30	!LO:TX:b:t=30	!	!	!LO:TX:b:t=30	!LO:TX:b:t=30	!
16r	16r	.	.	16r	16r	.
=:|!	=:|!	=:|!	=:|!	=:|!	=:|!	=:|!
*-	*-	*-	*-	*-	*-	*-
!!!system-decoration: [(s1,s2,s3)][(s4,s5)]
!!!ENC: Andrzej Kubiczek
!!!END: 2021-06-18
!!!RDF**dynam: f = fo
!!!RDF**dynam: < = cres:
!!!EED: Andrzej Borzym
!!!EST: 2021-06-21
